frontend/src/assets/maintenance.svg

<svg width="55" height="54" viewBox="0 0 55 54" fill="none" xmlns="http://www.w3.org/2000/svg">
<path d="M9.08602 35.8651C4.06795 30.969 4.06795 23.031 9.08603 18.1349L18.1721 9.2698C23.1901 4.37375 31.326 4.37375 36.3441 9.26981L45.4301 18.1349C50.4482 23.031 50.4482 30.969 45.4301 35.8651L36.3441 44.7302C31.326 49.6263 23.1901 49.6263 18.1721 44.7302L9.08602 35.8651Z" fill="#FECFD0"/>
<path d="M30.0042 32.075L26.475 28.5167C26.2806 28.5944 26.0838 28.6528 25.8847 28.6917C25.6852 28.7306 25.4736 28.75 25.25 28.75C24.2778 28.75 23.4514 28.4097 22.7708 27.7292C22.0903 27.0486 21.75 26.2222 21.75 25.25C21.75 24.9 21.7986 24.5669 21.8958 24.2508C21.9931 23.935 22.1292 23.6361 22.3042 23.3542L24.4333 25.4833L25.4833 24.4333L23.3542 22.3042C23.6361 22.1292 23.935 21.9931 24.2508 21.8958C24.5669 21.7986 24.9 21.75 25.25 21.75C26.2222 21.75 27.0486 22.0903 27.7292 22.7708C28.4097 23.4514 28.75 24.2778 28.75 25.25C28.75 25.4736 28.7306 25.685 28.6917 25.8841C28.6528 26.0836 28.5944 26.2806 28.5167 26.475L32.075 30.0042C32.1917 30.1208 32.25 30.2618 32.25 30.4271C32.25 30.5924 32.1917 30.7333 32.075 30.85L30.85 32.075C30.7333 32.1917 30.5924 32.25 30.4271 32.25C30.2618 32.25 30.1208 32.1917 30.0042 32.075ZM30.4271 30.8354L30.8208 30.4417L27.0875 26.7083C27.2625 26.5139 27.3889 26.2877 27.4667 26.0299C27.5444 25.7725 27.5833 25.5125 27.5833 25.25C27.5833 24.6667 27.3963 24.1586 27.0222 23.7257C26.6477 23.2933 26.1833 23.0333 25.6292 22.9458L26.7083 24.025C26.825 24.1417 26.8833 24.2778 26.8833 24.4333C26.8833 24.5889 26.825 24.725 26.7083 24.8417L24.8417 26.7083C24.725 26.825 24.5889 26.8833 24.4333 26.8833C24.2778 26.8833 24.1417 26.825 24.025 26.7083L22.9458 25.6292C23.0333 26.1833 23.2935 26.6475 23.7263 27.0216C24.1588 27.3961 24.6667 27.5833 25.25 27.5833C25.5028 27.5833 25.7556 27.5444 26.0083 27.4667C26.2611 27.3889 26.4896 27.2674 26.6937 27.1021L30.4271 30.8354Z" fill="#01244C"/>
</svg>

<svg xmlns="http://www.w3.org/2000/svg" width="55" height="54" fill="none" xmlns:v="https://vecta.io/nano"><path d="M9.086 35.865a12.32 12.32 0 0 1 0-17.73l9.086-8.865c5.018-4.896 13.154-4.896 18.172 0l9.086 8.865a12.32 12.32 0 0 1 0 17.73l-9.086 8.865c-5.018 4.896-13.154 4.896-18.172 0l-9.086-8.865z" fill="#fecfd0"/><path d="M30.004 32.075l-3.529-3.558c-.194.078-.391.136-.59.175s-.411.058-.635.058c-.972 0-1.799-.34-2.479-1.021s-1.021-1.507-1.021-2.479a3.38 3.38 0 0 1 .146-.999c.097-.316.233-.615.408-.897l2.129 2.129 1.05-1.05-2.129-2.129c.282-.175.581-.311.897-.408a3.38 3.38 0 0 1 .999-.146c.972 0 1.799.34 2.479 1.021s1.021 1.507 1.021 2.479c0 .224-.019.435-.058.634s-.097.396-.175.591l3.558 3.529c.117.117.175.258.175.423s-.058.306-.175.423l-1.225 1.225c-.117.117-.258.175-.423.175s-.306-.058-.423-.175zm.423-1.24l.394-.394-3.733-3.733a1.76 1.76 0 0 0 .379-.678c.078-.257.117-.517.117-.78 0-.583-.187-1.091-.561-1.524s-.839-.692-1.393-.78l1.079 1.079a.56.56 0 0 1 .175.408.56.56 0 0 1-.175.408l-1.867 1.867a.56.56 0 0 1-.408.175.56.56 0 0 1-.408-.175l-1.079-1.079c.088.554.348 1.018.781 1.392s.94.562 1.524.562a2.57 2.57 0 0 0 .758-.117c.253-.078.481-.199.685-.365l3.733 3.733z" fill="#01244c"/></svg>
